X: 3
T: The Belfast Traveller Reel
R: Irish reel
M: 4/4
L: 1/8
Z: Contributed 2018-01-28 00:06:41 by veda bafford vbusiness@roadrunner.com
K:Dmaj
|: "D"d2fd BAFE | "Bm"DB, B,2 A,B,DE | "D"F3A d2cd | "G"Beed "A"edBc |
"D"dfed BAFE | "Bm"DB, B,2 A,B,DE | "D"FAdf "G"ecdB |1 "A"AFEF "D"D3c :|2 "G"AF"A"EF "D"DABc ||
|:"D"d3c BFAF | "Bm"GEFD EDB,C | "D"D3C DEFG | "G"AFDF "A"E2 (3FGA |
"Bm"B3F AFEF | "D"DEFD EDB,D | "G"A,B,DF ECDB, |1 "A"A,FEF "D"DA,B,C :|2 "A"A,FEF "D"D3 ||

